Papirus/32x32/devices/phone.svg

<?xml version="1.0" encoding="UTF-8" standalone="no"?>
<svg xmlns="http://www.w3.org/2000/svg" height="32" width="32" version="1">
 <path d="m 4,29 v 1.5 C 4,31.331 4.669,32 5.5,32 h 19.99975 c 0.831,0 1.5,-0.669 1.5,-1.5 V 29 c 0,0.831 -0.669,1.5 -1.5,1.5 H 5.5 C 4.669,30.5 4,29.831 4,29 Z" style="opacity:0.2"/>
 <path transform="matrix(0,-1,-1,0,0,0)" style="fill:#6d6d6d" d="m -29.5,-26.99975 h 27 c 0.831,0 1.5,0.669 1.5,1.5 V -5.5 c 0,0.831 -0.669,1.5 -1.5,1.5 h -27 c -0.831,0 -1.5,-0.669 -1.5,-1.5 v -19.99975 c 0,-0.831 0.669,-1.5 1.5,-1.5 z"/>
 <path d="m 7.5385,3.9997 h 15.92375 c 0.852,0 1.538,0.7548 1.538,1.6923 v 18.616 c 0,0.937 -0.686,1.692 -1.538,1.692 H 7.5385 C 6.6867,26 6.0005,25.24542 6.0005,24.3082 V 5.6932 C 6.0015,4.7558 6.6877,4.001 7.54,4.001 Z" style="fill:#4d4d4d"/>
 <path d="M 5.5,1 C 4.669,1 4,1.669 4,2.5 v 1 C 4,2.669 4.669,2 5.5,2 h 19.99975 c 0.831,0 1.5,0.669 1.5,1.5 v -1 c 0,-0.831 -0.669,-1.5 -1.5,-1.5 z" style="opacity:0.1;fill:#ffffff"/>
 <rect rx=".438" ry=".5" height="1" width="7" y="2" x="12" style="fill:#4d4d4d"/>
 <g style="opacity:0.2" transform="translate(0,-3e-4)">
  <path d="M 9.0841,12.539"/>
  <path d="M 17.461,10.779"/>
  <path d="M 9.044,13 C 8.4687,13 8,13.53 8,14.183 v 4.6305 c 0,0.653 0.4687,1.186 1.044,1.186 0.5753,0 0.956,-0.533 0.956,-1.186 V 14.183 C 10,13.529 9.62,12.999 9.044,12.999"/>
  <path d="m 11,13 -2.45e-4,8.5 c -7e-6,0.23573 0.26439,0.5 0.50012,0.5 h 1.5 v 1.8751 c 0,0.622 0.396,1.125 1,1.125 0.60019,0 1.0199,-0.50359 1,-1.1249 v -1.875 h 1 v 1.8751 c 0,0.622 0.396,1.125 1,1.125 0.60019,0 1,-0.51173 1,-1.1249 v -1.875 h 1.5 c 0.236,0 0.5,-0.264 0.5,-0.5 v -8.5 z"/>
  <path d="M 22.044,13 C 21.469,13 21,13.53 21,14.183 v 4.6305 c 0,0.653 0.469,1.186 1.044,1.186 0.575,0 0.956,-0.533 0.956,-1.186 V 14.183 c 0,-0.654 -0.38,-1.184 -0.956,-1.184"/>
  <path d="M 12.865,5.9023 12,6.4023 13.197,8.4766 C 11.009,9.5337 11,12 11,12 h 9 C 20,12 19.99,9.5335 17.803,8.4766 L 19,6.4023 l -0.86523,-0.5 -1.2949,2.2422 C 16.44287,8.0557 16.00487,8 15.50187,8 c -0.504,0 -0.944,0.0555 -1.342,0.1445 l -1.295,-2.2422 z M 13.502,10 C 13.779,10 14,10.223 14,10.498 14,10.773 13.776,11 13.502,11 13.225,11 13,10.776 13,10.498 13,10.223 13.225,10 13.502,10 Z m 4,0 C 17.779,10 18,10.223 18,10.498 18,10.773 17.776,11 17.502,11 17.225,11 17,10.776 17,10.498 17,10.223 17.225,10 17.502,10 Z"/>
 </g>
 <g transform="translate(0,-1.0003)" style="fill:#a4ca39">
  <path d="M 9.0841,12.539" style="fill:#a4ca39"/>
  <path d="M 17.461,10.779" style="fill:#a4ca39"/>
  <path d="M 9.044,13 C 8.4687,13 8,13.53 8,14.183 v 4.6305 c 0,0.653 0.4687,1.186 1.044,1.186 0.5753,0 0.956,-0.533 0.956,-1.186 V 14.183 C 10,13.529 9.62,12.999 9.044,12.999" style="fill:#a4ca39"/>
  <path d="m 11,13 -2.45e-4,8.5 c -7e-6,0.23573 0.26439,0.5 0.50012,0.5 h 1.5 v 1.8751 c 0,0.622 0.396,1.125 1,1.125 0.60019,0 1.0199,-0.50359 1,-1.1249 v -1.875 h 1 v 1.8751 c 0,0.622 0.396,1.125 1,1.125 0.60019,0 1,-0.51173 1,-1.1249 v -1.875 h 1.5 c 0.236,0 0.5,-0.264 0.5,-0.5 v -8.5 z" style="fill:#a4ca39"/>
  <path d="M 22.044,13 C 21.469,13 21,13.53 21,14.183 v 4.6305 c 0,0.653 0.469,1.186 1.044,1.186 0.575,0 0.956,-0.533 0.956,-1.186 V 14.183 c 0,-0.654 -0.38,-1.184 -0.956,-1.184" style="fill:#a4ca39"/>
  <path d="M 12.865,5.9023 12,6.4023 13.197,8.4766 C 11.009,9.5337 11,12 11,12 h 9 C 20,12 19.99,9.5335 17.803,8.4766 L 19,6.4023 l -0.86523,-0.5 -1.2949,2.2422 C 16.44287,8.0557 16.00487,8 15.50187,8 c -0.504,0 -0.944,0.0555 -1.342,0.1445 l -1.295,-2.2422 z M 13.502,10 C 13.779,10 14,10.223 14,10.498 14,10.773 13.776,11 13.502,11 13.225,11 13,10.776 13,10.498 13,10.223 13.225,10 13.502,10 Z m 4,0 C 17.779,10 18,10.223 18,10.498 18,10.773 17.776,11 17.502,11 17.225,11 17,10.776 17,10.498 17,10.223 17.225,10 17.502,10 Z" style="fill:#a4ca39"/>
 </g>
</svg>

<svg xmlns="http://www.w3.org/2000/svg" width="32" height="32" version="1">
 <rect style="opacity:0.2" width="23" height="30" x="4" y="2" rx="1.5" ry="1.5"/>
 <rect style="fill:#8e8e8e" width="23" height="30" x="4" y="1" rx="1.5" ry="1.5"/>
 <rect style="opacity:0.5" width="19" height="22" x="6" y="4" rx="1.5" ry="1.5"/>
 <rect style="opacity:0.5" width="7" height="1" x="12" y="2" rx=".5" ry=".5"/>
 <circle style="opacity:0.5" cx="15.5" cy="28.5" r="1.5"/>
 <g style="opacity:0.2">
  <path d="M 9.0841,12.539"/>
  <path d="M 17.461,10.779"/>
  <path d="M 9.044,13 C 8.4687,13 8,13.53 8,14.183 V 18.813 C 8,19.466 8.4687,19.999 9.044,19.999 9.6193,19.999 10,19.466 10,18.813 V 14.183 C 10,13.529 9.62,12.999 9.044,12.999"/>
  <path d="M 11,13 V 21.5 C 11,21.736 11.264,22 11.5,22 H 13 V 23.875 C 13,24.497 13.396,25 14,25 14.6,25 15.02,24.497 15,23.875 V 22 H 16 V 23.875 C 16,24.497 16.396,25 17,25 17.6,25 18,24.489 18,23.875 V 22 H 19.5 C 19.736,22 20,21.736 20,21.5 V 13 Z"/>
  <path d="M 22.044,13 C 21.469,13 21,13.53 21,14.183 V 18.813 C 21,19.466 21.469,19.999 22.044,19.999 22.619,19.999 23,19.466 23,18.813 V 14.183 C 23,13.529 22.62,12.999 22.044,12.999"/>
  <path d="M 12.865,5.902 12,6.402 13.197,8.4763 C 11.009,9.5334 11,12 11,12 H 20 C 20,12 19.99,9.5332 17.803,8.4763 L 19,6.402 18.135,5.902 16.84,8.1442 C 16.443,8.0554 16.005,7.9997 15.502,7.9997 14.998,7.9997 14.558,8.0552 14.16,8.1442 Z M 13.502,9.9997 C 13.779,9.9997 14,10.223 14,10.498 14,10.773 13.776,11 13.502,11 13.225,11 13,10.776 13,10.498 13,10.223 13.225,9.9997 13.502,9.9997 Z M 17.502,9.9997 C 17.779,9.9997 18,10.223 18,10.498 18,10.773 17.776,11 17.502,11 17.225,11 17,10.776 17,10.498 17,10.223 17.225,9.9997 17.502,9.9997 Z"/>
 </g>
 <g style="fill:#a4ca39">
  <path d="M 9.0841,11.539"/>
  <path d="M 17.461,9.7787"/>
  <path d="M 9.044,12 C 8.4687,12 8,12.53 8,13.183 V 17.813 C 8,18.466 8.4687,18.999 9.044,18.999 9.6193,18.999 10,18.466 10,17.813 V 13.183 C 10,12.529 9.62,11.999 9.044,11.999"/>
  <path d="M 11,12 V 20.5 C 11,20.736 11.264,21 11.5,21 H 13 V 22.875 C 13,23.497 13.396,24 14,24 14.6,24 15.02,23.497 15,22.875 V 21 H 16 V 22.875 C 16,23.497 16.396,24 17,24 17.6,24 18,23.489 18,22.875 V 21 H 19.5 C 19.736,21 20,20.736 20,20.5 V 12 Z"/>
  <path d="M 22.044,12 C 21.469,12 21,12.53 21,13.183 V 17.813 C 21,18.466 21.469,18.999 22.044,18.999 22.619,18.999 23,18.466 23,17.813 V 13.183 C 23,12.529 22.62,11.999 22.044,11.999"/>
  <path d="M 12.865,4.902 12,5.402 13.197,7.4763 C 11.009,8.5334 11,11 11,11 H 20 C 20,11 19.99,8.5332 17.803,7.4763 L 19,5.402 18.135,4.902 16.84,7.1442 C 16.443,7.0554 16.005,6.9997 15.502,6.9997 14.998,6.9997 14.558,7.0552 14.16,7.1442 Z M 13.502,8.9997 C 13.779,8.9997 14,9.2227 14,9.4977 14,9.7727 13.776,9.9997 13.502,9.9997 13.225,9.9997 13,9.7757 13,9.4977 13,9.2227 13.225,8.9997 13.502,8.9997 Z M 17.502,8.9997 C 17.779,8.9997 18,9.2227 18,9.4977 18,9.7727 17.776,9.9997 17.502,9.9997 17.225,9.9997 17,9.7757 17,9.4977 17,9.2227 17.225,8.9997 17.502,8.9997 Z"/>
 </g>
 <path style="opacity:0.2;fill:#ffffff" d="M 5.5 1 C 4.669 1 4 1.669 4 2.5 L 4 3.5 C 4 2.669 4.669 2 5.5 2 L 25.5 2 C 26.331 2 27 2.669 27 3.5 L 27 2.5 C 27 1.669 26.331 1 25.5 1 L 5.5 1 z"/>
</svg>
